icons/label-plus.svg

<svg xmlns="http://www.w3.org/2000/svg" width="24" height="24" viewBox="0 0 24 24">
  <path d="M15.0924635,4 C15.6691887,4 16.2178408,4.24896086 16.5976169,4.68299078 L21.8476169,10.6829908 C22.5074124,11.4370428 22.5074124,12.5629572 21.8476169,13.3170092 L16.5976169,19.3170092 C16.2178408,19.7510391 15.6691887,20 15.0924635,20 L4,20 C2.8954305,20 2,19.1045695 2,18 L2,6 C2,4.8954305 2.8954305,4 4,4 L15.0924635,4 Z M10,8 C9.44771525,8 9,8.44771525 9,9 L9,9 L8.999,11 L7,11 L6.88337887,11.0067277 C6.38604019,11.0644928 6,11.4871642 6,12 C6,12.5522847 6.44771525,13 7,13 L7,13 L8.999,13 L9,15 L9.00672773,15.1166211 C9.06449284,15.6139598 9.48716416,16 10,16 C10.5522847,16 11,15.5522847 11,15 L11,15 L10.999,13 L13,13 L13.1166211,12.9932723 C13.6139598,12.9355072 14,12.5128358 14,12 C14,11.4477153 13.5522847,11 13,11 L13,11 L10.999,11 L11,9 L10.9932723,8.88337887 C10.9355072,8.38604019 10.5128358,8 10,8 Z"/>
</svg>

<svg xmlns="http://www.w3.org/2000/svg" viewBox="0 0 24 24">
  <path d="M15.1 4a2 2 0 0 1 1.5.68l5.25 6a2 2 0 0 1 0 2.64l-5.25 6a2 2 0 0 1-1.5.68H4a2 2 0 0 1-2-2V6c0-1.1.9-2 2-2h11.1zM10 8a1 1 0 0 0-1 1v2H6.88A1 1 0 0 0 7 13h2v2.12a1 1 0 0 0 2-.12v-2h2.12a1 1 0 0 0-.12-2h-2V8.88A1 1 0 0 0 10 8z"/>
</svg>
